X:1
T:Title
%%score { ( 1 3 ) | 2 }
L:1/8
M:6/8
K:Bb
V:1 treble nm="Grand Piano"
V:3 treble 
V:2 bass 
V:1
 z3 z2[Q:1/4=87] [DF] | [DF][B,D][CE] [DF][EG][EA] | [DB] [DF]2- [DF]2 [FB] | ABc Bcd | %4
[M:5/8] c-c- c3 |[M:1/8] F |[M:3/4] [Fd][Fd] [Fd][DB] [Ec][Fd] | [Ge][EG]- [EG]3 [Gc] | BB BA GA | %9
[M:5/8] [DB]-[DB]- [DB]3 |[M:1/8] [FB] |[M:3/4] c3 .A3 | z B- B3 z | c3 .d3 | e6 |[M:1/8] F | %16
[M:3/4] d4 z2 | .[Ge]2 EE E[Gc] | B3 .A3 |[M:5/8] [DB]-[DB]- [DB]3 |] %20
V:2
 z3 z2 [B,,B,] | [B,,B,][B,,F,][B,,F,] [B,,B,][B,,B,][B,,F,] | [B,,F,] [B,,B,]2- [B,,B,]2 [D,B,] | %3
 [F,F][F,G,F][F,A,F] [F,G,F][F,A,F][F,B,F] |[M:5/8] [F,A,F]-[F,A,F]- [F,A,F]3 |[M:1/8] [F,A,] | %6
[M:3/4] [B,,B,][B,,B,] [B,,B,][B,,B,] [B,,B,][B,,B,] | [E,B,][E,B,]- [E,B,]3 [E,E] | %8
 [F,DF][F,DF] [F,DF][F,CF] [F,CE][F,CE] |[M:5/8] [B,,B,]-[B,,B,]- [B,,B,]3 |[M:1/8] [D,B,] | %11
[M:3/4] [F,A,E][F,A,] [F,A,][F,CE] [F,C][F,CE] | [B,,B,][B,,F,] [B,,F,][B,,F,] [B,,F,][B,,F,] | %13
 [F,A,F][F,A,] [F,A,][F,B,F] [F,B,][F,B,F] | [F,CF][F,A,] [F,B,] [F,C]3 |[M:1/8] [F,A,] | %16
[M:3/4] [B,,B,][B,,B,] [B,,B,][B,,B,] [B,,B,][B,,B,] | [E,B,][E,B,E] [E,B,][E,B,] [E,B,][E,E] | %18
 [F,DF][F,D] [F,D][F,CF] [F,C][F,CE] |[M:5/8] [B,,B,]-[B,,B,]- [B,,B,]3 |] %20
V:3
 x6 | x6 | x6 | x6 |[M:5/8] x5 |[M:1/8] x |[M:3/4] x6 | x6 | x6 |[M:5/8] x5 |[M:1/8] x | %11
[M:3/4] z E .E2 EG | [DF]D DD D[DB] | z F .F2 Fd | z F G A3 |[M:1/8] x |[M:3/4] FF F[FB] [Ec][Fd] | %17
 z G- G3 z | z F .F2 FA |[M:5/8] x5 |] %20

